X:145
T:Fermoy Lasses, The
S:as played in Madison, Wisconsin
N:transcribed by Alan Ng
C:Traditional
Z:Transcribed by Alan Ng agng@students.wisc.edu id:ng-reels-29 Oct. 28, 1998
R:reel
M:C|
E:8
K:G
EF|:GE ~E2 BE ~E2|GE ~E2 B2AF|GE ~E2 BE ~E2|AFDF AB{d}BA|\
GE ~E2 BE ~E2|GE ~E2 B2AF|~G2 GF GBdB|AFDF AcBA:|*
|:G2 BG dGBG|G2 Bd efg2|G2BG dGBG|AFDF AcBA|\
G2 BG dGBG|G2 Bd efg2|afge ~d3B|AFDF AcBA:|**
